X:422
T: FRISCH LUSTIG UND FROEHLICH
N: E1614
O: Europa, Mitteleuropa, Deutschland, Schlesien
R: Staende -, Handwerker -, Gesellen - Lied, Wanderschaft
M: 3/4
L: 1/8
K: Eb
E2 | E2B,2G2 | G2E2
B2 | B2cBAG | G2F2
E2 | E2B,2G2 | G2E2
B2 | B2cBAG | G2F2
BB | cde2dc | B2G2
B2 | cde2dc | B4
e2 | cde2dc | Bgg2
fe | f2f2d2 | e4

